Catalina-light/apps/scalable/git.svg

<?xml version="1.0" encoding="UTF-8" standalone="no"?>
<!-- Created with Inkscape (http://www.inkscape.org/) -->

<svg
   xmlns:dc="http://purl.org/dc/elements/1.1/"
   xmlns:cc="http://creativecommons.org/ns#"
   xmlns:rdf="http://www.w3.org/1999/02/22-rdf-syntax-ns#"
   xmlns:svg="http://www.w3.org/2000/svg"
   xmlns="http://www.w3.org/2000/svg"
   xmlns:xlink="http://www.w3.org/1999/xlink"
   xmlns:sodipodi="http://sodipodi.sourceforge.net/DTD/sodipodi-0.dtd"
   xmlns:inkscape="http://www.inkscape.org/namespaces/inkscape"
   version="1.1"
   id="svg2"
   width="136.53333"
   height="136.53333"
   viewBox="0 0 136.53333 136.53333"
   sodipodi:docname="git.svg"
   inkscape:version="0.92.3 (2405546, 2018-03-11)">
  <metadata
     id="metadata8">
    <rdf:RDF>
      <cc:Work
         rdf:about="">
        <dc:format>image/svg+xml</dc:format>
        <dc:type
           rdf:resource="http://purl.org/dc/dcmitype/StillImage" />
        <dc:title />
      </cc:Work>
    </rdf:RDF>
  </metadata>
  <defs
     id="defs6">
    <linearGradient
       inkscape:collect="always"
       id="linearGradient879">
      <stop
         style="stop-color:#ff3747;stop-opacity:1"
         offset="0"
         id="stop875" />
      <stop
         style="stop-color:#ff9668;stop-opacity:1"
         offset="1"
         id="stop877" />
    </linearGradient>
    <linearGradient
       id="linearGradient3866">
      <stop
         style="stop-color:#000000;stop-opacity:0.52083331"
         offset="0"
         id="stop3868" />
      <stop
         style="stop-color:#2883c3;stop-opacity:0;"
         offset="1"
         id="stop3870" />
    </linearGradient>
    <linearGradient
       id="linearGradient3874">
      <stop
         style="stop-color:#000d0e;stop-opacity:0.84105963;"
         offset="0"
         id="stop3876" />
      <stop
         style="stop-color:#000000;stop-opacity:0;"
         offset="1"
         id="stop3878" />
    </linearGradient>
    <clipPath
       clipPathUnits="userSpaceOnUse"
       id="clipPath4178">
      <circle
         r="225"
         cy="222.68037"
         cx="204.3168"
         id="circle4180"
         style="opacity:1;fill:#1c5266;fill-opacity:0.19099205;fill-rule:evenodd;stroke:none;stroke-width:3.33392239;stroke-linecap:butt;stroke-linejoin:miter;stroke-miterlimit:4;stroke-dasharray:none;stroke-dashoffset:0;stroke-opacity:1" />
    </clipPath>
    <clipPath
       clipPathUnits="userSpaceOnUse"
       id="clipPath4178-1">
      <circle
         r="225"
         cy="222.68037"
         cx="204.3168"
         id="circle4180-7"
         style="opacity:1;fill:#1c5266;fill-opacity:0.19099205;fill-rule:evenodd;stroke:none;stroke-width:3.33392239;stroke-linecap:butt;stroke-linejoin:miter;stroke-miterlimit:4;stroke-dasharray:none;stroke-dashoffset:0;stroke-opacity:1" />
    </clipPath>
    <linearGradient
       inkscape:collect="always"
       xlink:href="#linearGradient879"
       id="linearGradient881"
       x1="74.704201"
       y1="130.14767"
       x2="77.588379"
       y2="11.319979"
       gradientUnits="userSpaceOnUse" />
    <filter
       inkscape:collect="always"
       style="color-interpolation-filters:sRGB"
       id="filter901"
       x="-0.0384"
       width="1.0768"
       y="-0.0384"
       height="1.0768">
      <feGaussianBlur
         inkscape:collect="always"
         stdDeviation="1.9287549"
         id="feGaussianBlur903" />
    </filter>
    <filter
       inkscape:collect="always"
       style="color-interpolation-filters:sRGB"
       id="filter870"
       x="-0.25759126"
       width="1.5151825"
       y="-0.24208965"
       height="1.4841793">
      <feGaussianBlur
         inkscape:collect="always"
         stdDeviation="8.9458425"
         id="feGaussianBlur872" />
    </filter>
  </defs>
  <sodipodi:namedview
     pagecolor="#ffffff"
     bordercolor="#666666"
     borderopacity="1"
     objecttolerance="10"
     gridtolerance="10"
     guidetolerance="10"
     inkscape:pageopacity="0"
     inkscape:pageshadow="2"
     inkscape:window-width="1360"
     inkscape:window-height="718"
     id="namedview4"
     showgrid="false"
     inkscape:zoom="0.66903599"
     inkscape:cx="26.407005"
     inkscape:cy="58.285021"
     inkscape:window-x="0"
     inkscape:window-y="26"
     inkscape:window-maximized="1"
     inkscape:current-layer="svg2"
     showguides="false" />
  <circle
     id="path12"
     cx="68.112343"
     cy="69.239136"
     r="64.021523"
     style="fill:url(#linearGradient881);fill-opacity:1;stroke:#e83c2b;stroke-width:6;stroke-miterlimit:4;stroke-dasharray:none;stroke-opacity:1" />
  <circle
     style="fill:none;fill-opacity:1;stroke:#ffffff;stroke-width:6;stroke-miterlimit:4;stroke-dasharray:none;stroke-opacity:1"
     r="64.021523"
     cy="69.239136"
     cx="68.112343"
     id="circle848" />
  <path
     inkscape:connector-curvature="0"
     id="path832"
     d="m 33.777424,32.345548 a 4.0004,4.0004 0 0 0 -2.433594,7.279296 l 26.945312,19.345704 a 10.761957,10.761957 0 0 0 -0.46289,3.09375 10.761957,10.761957 0 0 0 4.001953,8.36914 l -2.197266,29.501953 a 10.761957,10.761957 0 0 0 -7.783203,10.332029 10.761957,10.761957 0 0 0 10.761719,10.76172 10.761957,10.761957 0 0 0 10.761719,-10.76172 10.761957,10.761957 0 0 0 -5.777344,-9.5332 L 69.675861,72.769376 A 10.761957,10.761957 0 0 0 74.81258,70.833829 L 91.859455,83.07211 A 10.761957,10.761957 0 0 0 91.457111,85.980313 10.761957,10.761957 0 0 0 102.21883,96.742032 10.761957,10.761957 0 0 0 112.98055,85.980313 10.761957,10.761957 0 0 0 102.21883,75.216641 10.761957,10.761957 0 0 0 96.742267,76.72836 L 79.146564,64.097501 a 10.761957,10.761957 0 0 0 0.203125,-2.033203 10.761957,10.761957 0 0 0 -10.761718,-10.761719 10.761957,10.761957 0 0 0 -5.302735,1.40625 L 36.009845,33.126798 a 4.0004,4.0004 0 0 0 -2.232421,-0.78125 z"
     style="fill:#853e17;fill-opacity:0.94818652;stroke:none;stroke-width:1.38460529;stroke-opacity:1;opacity:0.553;filter:url(#filter870)" />
  <path
     style="fill:#ffffff;fill-opacity:0.94818654;stroke:none;stroke-width:1.38460529;stroke-opacity:1"
     d="m 33.777424,32.345548 a 4.0004,4.0004 0 0 0 -2.433594,7.279296 l 26.945312,19.345704 a 10.761957,10.761957 0 0 0 -0.46289,3.09375 10.761957,10.761957 0 0 0 4.001953,8.36914 l -2.197266,29.501953 a 10.761957,10.761957 0 0 0 -7.783203,10.332029 10.761957,10.761957 0 0 0 10.761719,10.76172 10.761957,10.761957 0 0 0 10.761719,-10.76172 10.761957,10.761957 0 0 0 -5.777344,-9.5332 L 69.675861,72.769376 A 10.761957,10.761957 0 0 0 74.81258,70.833829 L 91.859455,83.07211 A 10.761957,10.761957 0 0 0 91.457111,85.980313 10.761957,10.761957 0 0 0 102.21883,96.742032 10.761957,10.761957 0 0 0 112.98055,85.980313 10.761957,10.761957 0 0 0 102.21883,75.216641 10.761957,10.761957 0 0 0 96.742267,76.72836 L 79.146564,64.097501 a 10.761957,10.761957 0 0 0 0.203125,-2.033203 10.761957,10.761957 0 0 0 -10.761718,-10.761719 10.761957,10.761957 0 0 0 -5.302735,1.40625 L 36.009845,33.126798 a 4.0004,4.0004 0 0 0 -2.232421,-0.78125 z"
     id="path851"
     inkscape:connector-curvature="0" />
  <circle
     id="circle883"
     cx="68.299179"
     cy="69.052299"
     r="60.27359"
     style="fill:none;fill-opacity:1;stroke:#7b1c19;stroke-width:5.64874983;stroke-miterlimit:4;stroke-dasharray:none;stroke-opacity:1;filter:url(#filter901);opacity:0.075" />
  <circle
     id="circle905"
     cx="68.112343"
     cy="69.239136"
     r="64.021523"
     style="fill:none;fill-opacity:1;stroke:#ffffff;stroke-width:6;stroke-miterlimit:4;stroke-dasharray:none;stroke-opacity:1" />
</svg>

<svg width="136.53" height="136.53" version="1.1" viewBox="0 0 136.53 136.53" xmlns="http://www.w3.org/2000/svg">
<defs>
<linearGradient id="linearGradient881" x1="74.704" x2="77.588" y1="130.15" y2="11.32" gradientUnits="userSpaceOnUse"/>
<filter id="filter901" x="-.0384" y="-.0384" width="1.0768" height="1.0768" color-interpolation-filters="sRGB">
<feGaussianBlur stdDeviation="1.9287549"/>
</filter>
<filter id="filter870" x="-.25759" y="-.24209" width="1.5152" height="1.4842" color-interpolation-filters="sRGB">
<feGaussianBlur stdDeviation="8.9458425"/>
</filter>
</defs>
<circle cx="68.112" cy="69.239" r="64.022" fill="url(#linearGradient881)" stroke="#e83c2b" stroke-width="6"/>
<circle cx="68.112" cy="69.239" r="64.022" fill="none" stroke="#fff" stroke-width="6"/>
<path d="m33.777 32.346a4.0004 4.0004 0 0 0-2.4336 7.2793l26.945 19.346a10.762 10.762 0 0 0-0.46289 3.0938 10.762 10.762 0 0 0 4.002 8.3691l-2.1973 29.502a10.762 10.762 0 0 0-7.7832 10.332 10.762 10.762 0 0 0 10.762 10.762 10.762 10.762 0 0 0 10.762-10.762 10.762 10.762 0 0 0-5.7773-9.5332l2.082-27.965a10.762 10.762 0 0 0 5.1367-1.9355l17.047 12.238a10.762 10.762 0 0 0-0.40234 2.9082 10.762 10.762 0 0 0 10.762 10.762 10.762 10.762 0 0 0 10.762-10.762 10.762 10.762 0 0 0-10.762-10.764 10.762 10.762 0 0 0-5.4766 1.5117l-17.596-12.631a10.762 10.762 0 0 0 0.20312-2.0332 10.762 10.762 0 0 0-10.762-10.762 10.762 10.762 0 0 0-5.3027 1.4062l-27.275-19.582a4.0004 4.0004 0 0 0-2.2324-0.78125z" fill="#853e17" fill-opacity=".94819" filter="url(#filter870)" opacity=".553"/>
<path d="m33.777 32.346a4.0004 4.0004 0 0 0-2.4336 7.2793l26.945 19.346a10.762 10.762 0 0 0-0.46289 3.0938 10.762 10.762 0 0 0 4.002 8.3691l-2.1973 29.502a10.762 10.762 0 0 0-7.7832 10.332 10.762 10.762 0 0 0 10.762 10.762 10.762 10.762 0 0 0 10.762-10.762 10.762 10.762 0 0 0-5.7773-9.5332l2.082-27.965a10.762 10.762 0 0 0 5.1367-1.9355l17.047 12.238a10.762 10.762 0 0 0-0.40234 2.9082 10.762 10.762 0 0 0 10.762 10.762 10.762 10.762 0 0 0 10.762-10.762 10.762 10.762 0 0 0-10.762-10.764 10.762 10.762 0 0 0-5.4766 1.5117l-17.596-12.631a10.762 10.762 0 0 0 0.20312-2.0332 10.762 10.762 0 0 0-10.762-10.762 10.762 10.762 0 0 0-5.3027 1.4062l-27.275-19.582a4.0004 4.0004 0 0 0-2.2324-0.78125z" fill="#fff" fill-opacity=".94819"/>
<circle cx="68.299" cy="69.052" r="60.274" fill="none" filter="url(#filter901)" opacity=".075" stroke="#7b1c19" stroke-width="5.6487"/>
<circle cx="68.112" cy="69.239" r="64.022" fill="none" stroke="#fff" stroke-width="6"/>
</svg>
